X:1
T:Here Am I, Send Me
T:Here Am I, Send Me
T:Charles Hutchinson Gabriel
T:James Gilchrist Lawson, 1910
T:Public Domain Courtesy of the Cyber Hymnal™
C:Charles Hutchinson Gabriel
Z:Public Domain
Z:Courtesy of the Cyber Hymnal™
%%score ( 1 2 ) ( 3 4 )
L:1/8
Q:1/4=145
M:3/4
K:Ab
V:1 treble 
V:2 treble 
V:3 bass 
V:4 bass 
V:1
 [CE]2 | [CE]4 [CA]2 | [Fd]4 [Ec]2 | [Ec]4 [DB]2 | [CA]6 | [DA]4 [DA]2 | ([DF]2 [FA]2) [DA]2 | %7
w: 1.~Hast|Thou, O|Lord, a|work to|do?|Here am|I, * send|
w: 2.~O|touch my|lips with|fire di-|vine,|Here am|I, * send|
w: 3.~A|low- ly|ves- sel|at Thy|feet,|Here am|I, * send|
w: 4.~My|heart now|longs and|yearns to|go,|Here am|I, * send|
 E6- | [CE]4 [CE]2 | [CE]4 [CA]2 | [Fd]4 [Ec]2 | [=Ec]4 [EB]2 | [FA]6 | [FB]4 [=Dc]2 | %14
w: me!|* The|field is|white, the|la- b’rers|few,|Here am|
w: me!|* The|dross con-|sume, the|gold re-|fine,|Here am|
w: me!|* O|cleanse and|for Thy|use make|meet,|Here am|
w: me!|* To|reap Thy|har- vest|here be-|low,|Here am|
 [=DG]4 [DF]2 | B6- | [EB]4 z2 ||"^Refrain" [Ec]4 [Ee]2 | [Ee]4 [EA]2 | [EG]4 [Ge]2 | [Ge]6 | %21
w: I, send|me!||||||
w: I, send|me!||||||
w: I, send|me!||O- ver|mount- ain,|plain or|sea,|
w: I, send|me!||||||
 G4 d2 | d4 d2 | c6- | [Ec]4 [Ec]2 | [Ae]3 [Be] [Ae]2 | [Ec]3 [Fc] [_Gc]2 | [FA]4 [DF]2 | [Fd]6 | %29
w: ||||||||
w: ||||||||
w: Here am|I, send|me!|* I’ll|go to the|ends of the|earth for|Thee,|
w: ||||||||
 [Ec]4 [=Dc]2 | [Ec]4 [DB]2 | A6- | [CA]4 |] %33
w: ||||
w: ||||
w: Here am|I, send|me!||
w: ||||
V:2
 x2 | x6 | x6 | x6 | x6 | x6 | x6 | E4 D2 | x6 | x6 | x6 | x6 | x6 | x6 | x6 | E4 =D2 | x6 || x6 | %18
 x6 | x6 | x6 | (E3 F) (GF) | (G3 F) (EF) | E3 A GF | x6 | x6 | x6 | x6 | x6 | x6 | x6 | C4 D2 | %32
 x4 |] %33
V:3
 [A,,A,]2 | [A,,A,]4 [A,,E,]2 | [A,,A,]4 [A,,A,]2 | [E,G,]4 [E,G,]2 | [A,,A,]6 | [D,F,]4 [D,F,]2 | %6
w: ~|~ ~|~ ~|~ ~|~|~ ~|
 (A,2 D2) [F,D]2 | [A,C]4 [E,B,]2 | [A,,A,]4 [A,,A,]2 | [A,,A,]4 [A,,E,]2 | [A,,A,]4 [A,,A,]2 | %11
w: ~ * O|Lord, send|me! ~|~ ~|~ ~|
 [C,G,]4 [C,C]2 | [F,C]6 | [B,,=D]4 [B,,F,]2 | [B,,B,]4 [A,B,]2 | [G,B,]4 [F,A,]2 | [E,G,]4 z2 || %17
w: ~ ~|~|~ ~|~ O|Lord, send|me!|
 A,4 [A,C]2 | [A,C]4 [A,C]2 | [B,D]4 [B,D]2 | [B,D]6 | [E,D]4 [E,B,]2 | [E,B,]4 [E,G,]2 | %23
w: ~ ~|~ ~|~ ~|~|~ ~|~ O|
 [A,,A,]4 [A,,A,]2 | [A,,A,]4 [A,,A,]2 | [A,C]3 [A,D] [A,C]2 | A,3 A, [A,,A,E]2 | [D,D]4 [D,A,]2 | %28
w: Lord, send|me! ~|~ ~ ~|~ ~ ~|~ ~|
 [D,A,]6 | [E,A,]4 [F,A,]2 | [E,A,]4 [E,G,]2 | [A,,A,]4 [A,,F,]2 | [A,,E,]4 |] %33
w: ~|~ ~|~ O|Lord, send|me!|
V:4
 x2 | x6 | x6 | x6 | x6 | x6 | D,4 x2 | x6 | x6 | x6 | x6 | x6 | x6 | x6 | x6 | x6 | x6 || A,4 x2 | %18
 x6 | x6 | x6 | x6 | x6 | x6 | x6 | x6 | A,3 A, x2 | x6 | x6 | x6 | x6 | x6 | x4 |] %33

